X:20 
T: Gyertej, jó fiaim
O: Gyöngyöspata (Heves), Racskó Gergely (64), 1952.04
Q: "Tempo guisto" 1/4=110
M:4/4
L:1/4
K:G
c/B/A/B/ A<G | c/B/A/G/ | F<D Dz | 
d<d B<d | G>B d<c | B<A Az | 
d d/d/Bd | c/B/A/G | A/G/A/G/ D z | 
c/B/A/B/ A<G | c/B/A/G/ | F<D Dz | 
